X:14
T:Mile End Assembly
M:6/8
L:1/8
B:Thompson's Compleat Collection of 200 Favourite Country Dances, vol. 1 (London, 1757)
Z:Transcribed and edited by Fynnian Titford-Mock, 2007
Z:abc's:AK/Fiddler's Companion
K:F
f/e/|f2c A2G|FAG F2f|a>ba g2f|efg cfg|afd gec|fdc =Bgf|
e>fg Gc=B|c2C C2::g/f/|e2g c2 a/g/|f2a d2b|agf ed^c|
d2d d2 f/e/|dgb cea|Bdg 2 f/e/|d>ef cfe|f3 f2:|

